X: 9
M: 2/4
L: 1/16
K: D
V: 1
|:\
f4 (ag)(fe) | (d4 c2)d2 | e2d2g2f2 | edcB A2e2 |\
f4 (ag)(fe) | (d4 c2)d2 | e2d2g2f2 | {f2}e8 :|
|:\
a2A2 Aagf | g2A2 Agfe | f2ed c2d2 | edcB AGFE |\
|: [K:Dm]\
"Mineur"\
defe d2^c2 | d2A2B2A2 | G2FE A2G2 | {G}F2ED dcBA |\
{c}B2AG gfed | ^cA=B^c defg | afed g2f2 | {f2}e8 :|
|:\
bagf gfed | ^cA=B^c d2G2 | FAFD EGE^C | D8 :|
V: 2 clef=bass middle=d
|:\
d6 d2 | a6 f2 | g2f2e2d2 | a2A2c2A2 | d6 d2 |
a6 f2 | g2f2e2d2 | a8 :||: a8 | A8 | d2f2e2d2 |
a4 A4 | d4 e4 | f4 g4 | a4 A4 | d8 :||: [K:Dm]
"Mineur"\
d6 e2 | f4 g2f2 | e2d2^c2A2 | d4 f4 | g4 b4 |
a2g2f2e2 | d2f2e2d2 | a8 :||: a4 ^c2d2 | A6 g2 |
f2d2 ^c2A2 | d2e2f2d2 | g4 b4 | a2g2f2g2 | a4 A4 | d8 :|


